X: 39
P: J\"assp\^ods polska
O: efter Bengt Jonsson
R: Boda-polska
B:
D:
Z: 1997 by John Chambers <jc@trillian.mit.edu>
N:
M: 3/4
L: 1/8
K: D
|: "D"{A}f2 (~f>e) d>c | "G"B2 (B/c/)B/A/ G>G | "A7"A,>(A, B,>)(B, C>)C |1,3 "D"D2 (DF) A>A :|2,4 "D"D2 D4 :|
|: "D"a>(g f>e) d>c | "G"B2 b4 | "A7"~g(f/g/ a>g) e>c |1,3 "D"d>(f ab) a2 :|2,4 "D"d2 d4 :|
